!!!OTL: LUSTIG IST DAS ZIGEUNERLEBEN
!!!ARE: Europa, Mitteleuropa, Italia, Tirol, Meran
!!!SCT: E1585
!!!YEM: Copyright 1995, estate of Helmut Schaffrath.
**kern
*ICvox
*Ivox
*M6/8
*k[b-]
*F:
=1
{4cc
8cc
8cc
8dd
8ee
=2
4ff
8cc
4a
8f}
=3
{4cc
8cc
8cc
8dd
8ee
=4
4ff
8cc
4a
8f}
=5
{4dd
8dd
8ff
8ee
8dd
=6
8.dd
16cc
8cc
4.cc}
=7
{8.b-
16b-
8b-
8dd
8cc
8b-
=8
8b-
8a
8a
4.a}
=9
{8.b-
16a
8g
8.f
16a
8a
=10
4.cc
8.cc
16dd
8ee
=11
4.ff}
{4.dd
=12
8.cc
16a
8a
8.cc
16b-
8g
=13
4.f
4.r}
==
!!!AGN: Staende - Lied, Zigeuner
!!!ONB: ESAC (Essen Associative Code) Database: ERK3
!!!AMT: compound duple
!!!AIN: vox
!!!EED: Helmut Schaffrath
!!!EEV: 1.0
*-
